X:1
T:Wiegenlied
T:Wiegenlied
T:für eine Singstimme mit Begleitung des Pianoforte Morzart's Werke. Serie 7. No. 12.
T:W. A. Morzart. KV350.
T:Gedicht angeblich von Fr. Wilh. Gotter
T:Public Domain. Wolfgang Amadeus Mozarts Werke, Serie VII: Lieder und Kanons, Bd.1, No.12 (pp.20) Leipzig: Breitkopf &amp; Härtel, 1877. Plate W.A.M. 350.
T:Public Domain. Wolfgang Amadeus Mozarts Werke, Serie VII: Lieder und Kanons, Bd.1, No.12 (pp.20) Leipzig: Breitkopf &amp; Härtel, 1877. Plate W.A.M. 350.
C:W. A. Morzart. KV350.
Z:Gedicht angeblich von Fr. Wilh. Gotter
Z:Public Domain. Wolfgang Amadeus Mozarts Werke, Serie VII:
Z:Lieder und Kanons, Bd.1, No.12 (pp.20)
Z:Leipzig: Breitkopf & Härtel, 1877. Plate W.A.M. 350.
%%score 1 { ( 2 4 ) | ( 3 5 ) }
L:1/8
Q:1/4=80
M:6/8
K:F
V:1 treble nm="Singstimme."
V:2 treble nm="Pianoforte."
V:4 treble 
V:3 bass 
V:5 bass 
V:1
"^Andante""^-100" ABA GFG | F2 z z2 z | FBB Bcd | c2 z z2 z | G^FG GFG | B2 z z2 z | AAA BAB | %7
w: 1.Schla- fe, mein Prinz- chen, es|ruh'n|Schäf- chen und Vö- gel- chen|nun,|Gar- ten und Wie- se ver-|stummt,|auch nicht ein Bien- chen mehr|
w: 2.Al- les im Schlos- se schon|liegt,|Al- les in Schlum- mer ge-|wiegt;|re- get kein Mäu- schen sich|mehr,|Kel- ler und Kü- che sind|
w: 3.Wer ist be- glück- ter als|du?|Nichts als Ver- gnü- gen und|Ruh',|Spiel- werk und Zu- cker voll-|auf,|und noch Ka- ros- sen im|
 c2 z z2 z | ddd d^cd | f2 z z2 z | =ccc c=Bc | f2 z z2 z | BcB ABc | G2 z z2 z | ABA GFG | %15
w: summt,|Lu- na mit sil- ber- nem|Schein|gu- cket zum Fen- ster her-|ein.|Schla- fe beim sil- ber- nen|Schein,|schla- fe, mein Prinz- chen, schlaf'-|
w: leer,|nur in der Zo- fe Ge-|mach|tö- net ein schmach- ten- des|Ach.|Was für ein Ach mag dies|sein?|Schla- fe, mein Prinz- chen, schlaf'-|
w: Lauf,|Al- les be- sorgt und be-|reit,|dass nur main Prinz- chen nicht|schreit.|Was wird da künf- tig erst|sein?|Schla- fe, mein Prinz- chen, schlaf'-|
 F2 z z2 A | c3- (c/=B/_B/A/(B/)G/) | F2 z z2 z | z6 | z6 | z6 |] %21
w: ein, schlaf'-|ein, _ _ _ _ schlaf'- *|ein!||||
w: ein, schlaf'-|ein, _ _ _ _ schlaf'- *|ein!||||
w: ein, schlaf'-|ein, _ _ _ _ schlaf'- *|ein!||||
V:2
 [CFA]3 [B,EG]3 | z [A,CF][A,CF] z [A,CF][A,CF] | z [B,DF][B,DF] z [B,DF][B,DF] | %3
 z [A,CF][A,CF] z [A,CF][A,CF] | [EG][^D^F][EG] [EG][DF][EG] | z (ec) (gec) | %6
 z [FA][EG] [GB][^FA][GB] | z (cA) (a=fc) | [FBd][FBd][FBd] [FBd][FBd][FBd] | %9
 z ff (b/a/g/f/_e/d/) | z [Fc][Fc] [Fc][Fc][Fc] | z ff (a/g/f/e/d/c/) | [GB]2 z [FA]2 z | %13
 (Gc=B _BAB/G/) | [CFA]2 z [B,EG]2 z | ([A,F]CA) ([A,F]CA) | ([EG]Cc) ([EG]Cc) | %17
 ([A,F]CA) ([A,F]CA) | [cc'-]3 (c'/=b/_b/a/b/g/) | [Acf][Acf][Acf] [Acf][Acf][Acf] | %20
 [Acf]2 z z2 z |] %21
V:3
 F,3 C,3 | F,,2 z F,2 z | F,2 z F,2 z | F,2 z F,2 z | C,2 z C,2 z | C,6 | F,2 z F,2 z | F,6 | %8
 B,B,B, B,B,B, | [B,D][B,D][B,D] [B,D][B,D][B,D] | A,A,A, A,A,A, | %11
 [A,C][A,C][A,C] [A,C][A,C][A,C] | [E,C]2 z [F,C]2 z | [C,C]3- [C,C]2 z | F,2 z C,2 z | F,,3 F,3 | %16
 [C,B,]6 | F,3 F,3 | C,6 | [F,,F,][F,,F,][F,,F,] [F,,F,][F,,F,][F,,F,] | [F,,F,]2 z z2 z |] %21
V:4
 x6 | x6 | x6 | x6 | x6 | B3 B3 | x6 | A3 A3 | x6 | x6 | x6 | x6 | x6 | x6 | x6 | x6 | x6 | x6 | %18
 x6 | x6 | x6 |] %21
V:5
 x6 | x6 | x6 | x6 | x6 | x6 | x6 | x6 | x6 | x6 | x6 | x6 | x6 | x6 | x6 | x6 | x6 | x6 | %18
 z [E,B,][E,B,] [E,B,][E,B,][E,B,] | x6 | x6 |] %21

